X: 100425
M: C|
L: 1/8
K: Bb
!segno!(uDE) |\
d'c'ba bdfb | d'c'ba bdfb | c'bag ad^fa | c'bag ad^fa |
d'c'ba (bd')d'2 | edc=B cfa2 | (ba)gf =ebge | {g}f=efg f2~f2 |
bagf eg^fg | eg^fg cg^fg | =fedc Bf~f2 | df~f2 Bf~f2 |
(ba)ba bagf | (gf)gf (gf)ed | cBdc edf=e | (gf)ag (fe)dc !segno!"_D.C."|]


